X:1816
T:Eraesen Ollin Polkka
O:england
C:Teppo Vlimki
M:2/4
L:1/16
K:G
D2DF ADFA|GGBd g3G|BBGB eedB|ddcB A2A2|ffdf aafa|\
bbdf a2g2|BBGB eedB|
ddcB A2A2|ffdf bbdf|a2d'2 b4:|B|G2BB BGBd|\
c2ee eceg|d2ff fdfa|ggfe ddBd|
G2BB BGBd|c2ee eceg|d2ff fdfa|g2b2 g4:|\
eece g2e2|d2d2 BBGB|AAFA ccBA|
G2G2 BGBd|\
eece g2e2|d2d2 BBGB|AAFA ccBA|G2g2 G4:|\
GB|ddBd eedB|
ddcB A2A2|D^DE^E FG^GA|^ABcd e2d2|\
BBGB eedB|ddcB A2A2|ffdf bbdf|a2d'2 b4:|
